assets/img/landing/digital-agency/hero-bg.svg

<svg width="1920" height="1080" viewBox="0 0 1920 1080" fill="none" xmlns="http://www.w3.org/2000/svg">
<g clip-path="url(#clip0_3959_31353)">
<rect width="1920" height="1080" fill="url(#paint0_radial_3959_31353)"/>
<g opacity="0.15" filter="url(#filter0_f_3959_31353)">
<ellipse rx="346.044" ry="138.506" transform="matrix(-0.995683 -0.0928218 -0.123066 0.992398 1321.6 624.571)" fill="#6366F1"/>
</g>
<g opacity="0.15" filter="url(#filter1_f_3959_31353)">
<ellipse rx="420.946" ry="242.503" transform="matrix(-0.998433 -0.0559618 -0.0743519 0.997232 1481.81 350.389)" fill="white"/>
</g>
<path opacity="0.8" fill-rule="evenodd" clip-rule="evenodd" d="M2537 592.5C2537 592.224 2536.78 592 2536.5 592H1632.5C1592.46 592 1560 624.459 1560 664.5V1204.5C1560 1204.78 1560.22 1205 1560.5 1205C1560.78 1205 1561 1204.78 1561 1204.5V664.5C1561 625.012 1593.01 593 1632.5 593H2536.5C2536.78 593 2537 592.776 2537 592.5Z" fill="url(#paint1_linear_3959_31353)"/>
<path opacity="0.65" fill-rule="evenodd" clip-rule="evenodd" d="M2540 534.5C2540 534.224 2539.78 534 2539.5 534H1593.5C1541.31 534 1499 576.309 1499 628.5V1193.5C1499 1193.78 1499.22 1194 1499.5 1194C1499.78 1194 1500 1193.78 1500 1193.5V628.5C1500 576.861 1541.86 535 1593.5 535H2539.5C2539.78 535 2540 534.776 2540 534.5Z" fill="url(#paint2_linear_3959_31353)"/>
<path opacity="0.5" fill-rule="evenodd" clip-rule="evenodd" d="M2553 467.5C2553 467.224 2552.78 467 2552.5 467L1544.5 467C1482.37 467 1432 517.368 1432 579.5V1183.5C1432 1183.78 1432.22 1184 1432.5 1184C1432.78 1184 1433 1183.78 1433 1183.5V579.5C1433 517.92 1482.92 468 1544.5 468L2552.5 468C2552.78 468 2553 467.776 2553 467.5Z" fill="url(#paint3_linear_3959_31353)"/>
<path opacity="0.3" fill-rule="evenodd" clip-rule="evenodd" d="M2557 393.5C2557 393.224 2556.78 393 2556.5 393L1484.5 393C1413.53 393 1356 450.531 1356 521.5V1173.5C1356 1173.78 1356.22 1174 1356.5 1174C1356.78 1174 1357 1173.78 1357 1173.5V521.5C1357 451.084 1414.08 394 1484.5 394L2556.5 394C2556.78 394 2557 393.776 2557 393.5Z" fill="url(#paint4_linear_3959_31353)"/>
<path opacity="0.2" fill-rule="evenodd" clip-rule="evenodd" d="M2557 303.5C2557 303.224 2556.78 303 2556.5 303L1392.5 303C1319.32 303 1260 362.322 1260 435.5V1163.5C1260 1163.78 1260.22 1164 1260.5 1164C1260.78 1164 1261 1163.78 1261 1163.5V435.5C1261 362.875 1319.87 304 1392.5 304L2556.5 304C2556.78 304 2557 303.776 2557 303.5Z" fill="url(#paint5_linear_3959_31353)"/>
<g clip-path="url(#clip1_3959_31353)">
<path d="M-0.962993 1080H-1.6051H-0.962993ZM0.160552 1080L524.733 1066.52C524.893 1071.01 524.893 1075.51 524.893 1080H7.39098e-05H0.160552ZM-0.802515 1080H-0.962993H-1.6051H-0.802515ZM-0.160405 1080H7.39098e-05H0.160552H0.321129H0.481608L520.399 1012.29C521.522 1021.27 522.485 1030.42 523.288 1039.57L0.321129 1080H0.160552H-0.160405H-0.642036H-0.160405ZM510.446 957.895C512.533 966.88 514.459 975.865 516.225 984.851L0.481608 1079.84L510.446 957.895ZM-0.160405 1080H0.160552H0.321129H-0.160405ZM494.716 904.784C497.766 913.449 500.655 922.274 503.223 931.099L0.321129 1079.84L494.716 904.784ZM473.688 853.76C477.701 862.104 481.393 870.447 484.924 878.951L0.481608 1079.68L473.688 853.76ZM7.39098e-05 1080H0.160552H7.39098e-05ZM447.363 805.464C452.179 813.326 456.673 821.188 461.168 829.211L0.642184 1079.84L447.363 805.464ZM7.39098e-05 1080L0.160552 1079.84L7.39098e-05 1080ZM0.160552 1080L416.223 760.376C421.841 767.596 427.138 774.977 432.274 782.519L0.321129 1079.84L0.160552 1080ZM7.39098e-05 1080L380.748 718.818C387.008 725.397 393.108 732.136 399.047 739.196L7.39098e-05 1080ZM7.39098e-05 1079.84L341.1 681.112C348.003 687.049 354.744 693.146 361.486 699.404L7.39098e-05 1079.84ZM7.39098e-05 1079.84V1079.68L297.6 647.898C305.144 653.032 312.528 658.488 319.751 663.943L7.39098e-05 1079.84ZM0.160552 1079.52L250.889 619.016C258.915 623.348 266.941 628.002 274.646 632.815L0.160552 1079.52ZM200.968 595.269C209.476 598.799 217.823 602.489 226.17 606.501L7.39098e-05 1079.52L200.968 595.269ZM148.961 576.817C157.789 579.384 166.618 582.272 175.285 585.321L0.160552 1079.36L148.961 576.817ZM7.39098e-05 1080V1079.84V1080ZM95.1871 563.981C104.337 565.585 113.326 567.511 122.154 569.757L0.160552 1079.52L95.1871 563.981ZM7.39098e-05 1080V1079.84V1080ZM7.39098e-05 1080V1079.84V1079.68L40.7716 556.921C49.9211 557.562 58.9101 558.525 68.0596 559.809L0.321129 1079.52V1079.68V1079.84L7.39098e-05 1080ZM7.39098e-05 1080V555.316C4.49457 555.316 8.98911 555.316 13.4836 555.477L7.39098e-05 1079.84V1080ZM7.39098e-05 555.316V1080H-0.160405H-0.642036H-0.802515H-0.962993H-1.6051V555.316H7.39098e-05ZM0.160552 1080L524.733 1066.52L990.073 1054.49C990.234 1062.99 990.395 1071.5 990.395 1080H7.39098e-05H0.160552ZM-0.802515 1080H-0.962993H-1.6051H-0.802515ZM-0.160405 1080H7.39098e-05H0.160552H0.321129H0.481608L520.559 1012.13L982.048 951.958C984.295 968.966 986.061 986.135 987.345 1003.3L523.288 1039.24L0.321129 1080H0.160552H-0.160405H-0.642036H-0.160405ZM0.481608 1079.84L510.446 957.895L963.107 849.588C967.119 866.436 970.811 883.444 973.861 900.613L516.065 984.851L0.481608 1079.84ZM-0.160405 1080H7.39098e-05H-0.160405ZM494.716 904.784L933.571 749.465C939.35 765.831 944.807 782.358 949.623 799.045L503.223 931.099L0.321129 1079.84L494.716 904.784ZM7.39098e-05 1080H0.160552H7.39098e-05ZM473.688 853.76L893.602 653.193C901.147 668.757 908.209 684.642 914.791 700.848L484.764 879.112L0.321129 1079.84L473.688 853.76ZM447.363 805.464L844.002 562.055C852.991 576.817 861.659 591.739 870.006 606.982L0.481608 1079.84L447.363 805.464ZM7.39098e-05 1080L0.160552 1079.84L7.39098e-05 1080ZM0.160552 1080L416.223 760.376L785.413 476.854C795.847 490.493 805.96 504.452 815.912 518.572L432.435 782.519L0.481608 1079.84L0.160552 1080ZM0.160552 1080L380.748 718.818L718.317 398.392C730.195 410.908 741.592 423.583 752.828 436.741L399.047 739.036L0.160552 1080ZM7.39098e-05 1079.84L341.1 681.112L643.516 327.472C656.678 338.703 669.359 350.096 681.879 361.969L361.326 699.404L7.39098e-05 1079.84ZM7.39098e-05 1079.84V1079.68L297.6 647.898L561.652 264.574C575.938 274.361 589.742 284.47 603.386 295.06L319.751 664.104L7.39098e-05 1079.84ZM0.160552 1079.52L473.206 210.34C488.456 218.684 503.384 227.348 518.151 236.334L274.485 632.815L0.160552 1079.52ZM200.968 595.269L379.303 165.413C395.355 172.152 411.247 179.212 426.977 186.593L226.33 606.501L0.160552 1079.52L200.968 595.269ZM148.961 576.817L280.906 130.595C297.6 135.569 314.294 140.864 330.506 146.64L175.125 585.321L7.39098e-05 1079.36L148.961 576.817ZM7.39098e-05 1080V1079.84V1080ZM0.160552 1079.52L95.1871 563.981L179.459 106.366C196.634 109.575 213.649 113.105 230.504 117.117L122.154 569.596L0.160552 1079.52ZM7.39098e-05 1080V1079.84V1080ZM7.39098e-05 1080V1079.84V1079.68L40.7716 556.921L76.7275 92.8882C93.9029 94.1718 111.078 96.0972 128.093 98.1831L67.8991 559.648L7.39098e-05 1079.52V1079.68V1079.84V1080ZM7.39098e-05 1080V90C8.50751 90 17.015 90.1605 25.5224 90.3209L13.4836 555.477L7.39098e-05 1079.84V1080ZM7.39098e-05 90V1080H-0.160405H-0.642036H-0.802515H-0.962993H-1.6051V90H7.39098e-05Z" fill="url(#paint6_radial_3959_31353)"/>
</g>
</g>
<defs>
<filter id="filter0_f_3959_31353" x="626.616" y="133.383" width="1389.96" height="982.377" filterUnits="userSpaceOnUse" color-interpolation-filters="sRGB">
<feFlood flood-opacity="0" result="BackgroundImageFix"/>
<feBlend mode="normal" in="SourceGraphic" in2="BackgroundImageFix" result="shape"/>
<feGaussianBlur stdDeviation="175" result="effect1_foregroundBlur_3959_31353"/>
</filter>
<filter id="filter1_f_3959_31353" x="611.131" y="-342.604" width="1741.36" height="1385.99" filterUnits="userSpaceOnUse" color-interpolation-filters="sRGB">
<feFlood flood-opacity="0" result="BackgroundImageFix"/>
<feBlend mode="normal" in="SourceGraphic" in2="BackgroundImageFix" result="shape"/>
<feGaussianBlur stdDeviation="225" result="effect1_foregroundBlur_3959_31353"/>
</filter>
<radialGradient id="paint0_radial_3959_31353" cx="0" cy="0" r="1" gradientUnits="userSpaceOnUse" gradientTransform="translate(1407.5 339.12) rotate(-48.9169) scale(2477.35 1281.77)">
<stop stop-color="#6387F1" stop-opacity="0.1"/>
<stop offset="0.524709" stop-color="#DA46EF" stop-opacity="0.05"/>
<stop offset="1" stop-color="#6387F1" stop-opacity="0.1"/>
</radialGradient>
<linearGradient id="paint1_linear_3959_31353" x1="2537" y1="899.967" x2="1560" y2="899.967" gradientUnits="userSpaceOnUse">
<stop stop-color="#6366F1"/>
<stop offset="0.5" stop-color="#8B5CF6"/>
<stop offset="1" stop-color="#D946EF"/>
</linearGradient>
<linearGradient id="paint2_linear_3959_31353" x1="2540" y1="865.579" x2="1499" y2="865.579" gradientUnits="userSpaceOnUse">
<stop stop-color="#6366F1"/>
<stop offset="0.5" stop-color="#8B5CF6"/>
<stop offset="1" stop-color="#D946EF"/>
</linearGradient>
<linearGradient id="paint3_linear_3959_31353" x1="2553" y1="827.215" x2="1432" y2="827.215" gradientUnits="userSpaceOnUse">
<stop stop-color="#6366F1"/>
<stop offset="0.5" stop-color="#8B5CF6"/>
<stop offset="1" stop-color="#D946EF"/>
</linearGradient>
<linearGradient id="paint4_linear_3959_31353" x1="2557" y1="785.369" x2="1356" y2="785.369" gradientUnits="userSpaceOnUse">
<stop stop-color="#6366F1"/>
<stop offset="0.5" stop-color="#8B5CF6"/>
<stop offset="1" stop-color="#D946EF"/>
</linearGradient>
<linearGradient id="paint5_linear_3959_31353" x1="2557" y1="735.56" x2="1260" y2="735.56" gradientUnits="userSpaceOnUse">
<stop stop-color="#6366F1"/>
<stop offset="0.5" stop-color="#8B5CF6"/>
<stop offset="1" stop-color="#D946EF"/>
</linearGradient>
<radialGradient id="paint6_radial_3959_31353" cx="0" cy="0" r="1" gradientUnits="userSpaceOnUse" gradientTransform="translate(-34.798 1138.81) rotate(-46.0678) scale(1058.92 1061.02)">
<stop stop-color="#6366F1" stop-opacity="0.05"/>
<stop offset="1" stop-color="white" stop-opacity="0"/>
</radialGradient>
<clipPath id="clip0_3959_31353">
<rect width="1920" height="1080" fill="white"/>
</clipPath>
<clipPath id="clip1_3959_31353">
<rect width="992" height="990" fill="white" transform="matrix(-1 0 0 1 992 90)"/>
</clipPath>
</defs>
</svg>

<?xml version="1.0" encoding="utf-8"?>
<!-- Generator: Adobe Illustrator 26.4.1, SVG Export Plug-In . SVG Version: 6.00 Build 0)  -->
<svg version="1.1" id="Layer_1" xmlns="http://www.w3.org/2000/svg" xmlns:xlink="http://www.w3.org/1999/xlink" x="0px" y="0px"
	 viewBox="0 0 1920 1080" style="enable-background:new 0 0 1920 1080;" xml:space="preserve">
<style type="text/css">
	.st0{clip-path:url(#SVGID_00000125586078349286112380000004624740209247969707_);}
	.st1{opacity:6.000000e-02;fill:#2078BB;}
	.st2{opacity:0.13;}
	.st3{fill:#2078BB;}
	.st4{opacity:0.15;}
	.st5{fill:#FFFFFF;}
	.st6{opacity:0.24;fill-rule:evenodd;clip-rule:evenodd;fill:#2078BB;}
	.st7{clip-path:url(#SVGID_00000085247550978880400470000000725293327011800241_);}
	.st8{fill:url(#SVGID_00000079446705424241205870000001592633377922710928_);}
</style>
<g>
	<defs>
		<rect id="SVGID_1_" width="1920" height="1080"/>
	</defs>
	<clipPath id="SVGID_00000093162284705652739050000002042074981105500559_">
		<use xlink:href="#SVGID_1_"  style="overflow:visible;"/>
	</clipPath>
	<g style="clip-path:url(#SVGID_00000093162284705652739050000002042074981105500559_);">
		<rect class="st1" width="1920" height="1080"/>
		<g class="st2">
			<g>
				
					<ellipse transform="matrix(8.704745e-02 -0.9962 0.9962 8.704745e-02 584.3578 1886.7871)" class="st3" cx="1321.6" cy="624.6" rx="138.4" ry="346.1"/>
			</g>
		</g>
		<g class="st4">
			
				<ellipse transform="matrix(4.682545e-02 -0.9989 0.9989 4.682545e-02 1062.4189 1814.1665)" class="st5" cx="1481.8" cy="350.4" rx="242.4" ry="421"/>
		</g>
		<path class="st6" d="M2537,592.5c0-0.3-0.2-0.5-0.5-0.5h-904c-40,0-72.5,32.5-72.5,72.5v540c0,0.3,0.2,0.5,0.5,0.5
			s0.5-0.2,0.5-0.5v-540c0-39.5,32-71.5,71.5-71.5h904C2536.8,593,2537,592.8,2537,592.5z"/>
		<path class="st6" d="M2540,534.5c0-0.3-0.2-0.5-0.5-0.5h-946c-52.2,0-94.5,42.3-94.5,94.5v565c0,0.3,0.2,0.5,0.5,0.5
			s0.5-0.2,0.5-0.5v-565c0-51.6,41.9-93.5,93.5-93.5h946C2539.8,535,2540,534.8,2540,534.5z"/>
		<path class="st6" d="M2553,467.5c0-0.3-0.2-0.5-0.5-0.5h-1008c-62.1,0-112.5,50.4-112.5,112.5v604c0,0.3,0.2,0.5,0.5,0.5
			s0.5-0.2,0.5-0.5v-604c0-61.6,49.9-111.5,111.5-111.5h1008C2552.8,468,2553,467.8,2553,467.5z"/>
		<path class="st6" d="M2557,393.5c0-0.3-0.2-0.5-0.5-0.5h-1072c-71,0-128.5,57.5-128.5,128.5v652c0,0.3,0.2,0.5,0.5,0.5
			s0.5-0.2,0.5-0.5v-652c0-70.4,57.1-127.5,127.5-127.5h1072C2556.8,394,2557,393.8,2557,393.5z"/>
		<path class="st6" d="M2557,303.5c0-0.3-0.2-0.5-0.5-0.5h-1164c-73.2,0-132.5,59.3-132.5,132.5v728c0,0.3,0.2,0.5,0.5,0.5
			s0.5-0.2,0.5-0.5v-728c0-72.6,58.9-131.5,131.5-131.5h1164C2556.8,304,2557,303.8,2557,303.5z"/>
		<g>
			<defs>
				<rect id="SVGID_00000065048466511354166000000001259717415309541000_" y="90" width="992" height="990"/>
			</defs>
			<clipPath id="SVGID_00000065056678466476722960000010361531830161345976_">
				<use xlink:href="#SVGID_00000065048466511354166000000001259717415309541000_"  style="overflow:visible;"/>
			</clipPath>
			<g style="clip-path:url(#SVGID_00000065056678466476722960000010361531830161345976_);">
				
					<radialGradient id="SVGID_00000047740646166349957990000004725882239956724633_" cx="661.6465" cy="960.4163" r="1" gradientTransform="matrix(734.6859 -762.5933 -764.1056 -736.1428 247722.3594 1212709.5)" gradientUnits="userSpaceOnUse">
					<stop  offset="0" style="stop-color:#6366F1;stop-opacity:5.000000e-02"/>
					<stop  offset="1" style="stop-color:#FFFFFF;stop-opacity:0"/>
				</radialGradient>
				<path style="fill:url(#SVGID_00000047740646166349957990000004725882239956724633_);" d="M-1,1080h-0.6H-1z M0.2,1080
					l524.6-13.5c0.2,4.5,0.2,9,0.2,13.5H0H0.2z M-0.8,1080H-1h-0.6H-0.8z M-0.2,1080H0h0.2h0.2h0.2l519.9-67.7
					c1.1,9,2.1,18.1,2.9,27.3L0.3,1080H0.2H-0.2h-0.5H-0.2z M510.4,957.9c2.1,9,4,18,5.8,27l-515.7,95L510.4,957.9z M-0.2,1080h0.3
					h0.2H-0.2z M494.7,904.8c3,8.7,5.9,17.5,8.5,26.3L0.3,1079.8L494.7,904.8z M473.7,853.8c4,8.3,7.7,16.7,11.2,25.2L0.5,1079.7
					L473.7,853.8z M0,1080h0.2H0z M447.4,805.5c4.8,7.9,9.3,15.7,13.8,23.7L0.6,1079.8L447.4,805.5z M0,1080l0.2-0.2L0,1080z
					 M0.2,1080l416.1-319.6c5.6,7.2,10.9,14.6,16.1,22.1l-432,297.3L0.2,1080z M0,1080l380.7-361.2c6.3,6.6,12.4,13.3,18.3,20.4
					L0,1080z M0,1079.8l341.1-398.7c6.9,5.9,13.6,12,20.4,18.3L0,1079.8z M0,1079.8v-0.2l297.6-431.8c7.5,5.1,14.9,10.6,22.2,16
					L0,1079.8z M0.2,1079.5L250.9,619c8,4.3,16.1,9,23.8,13.8L0.2,1079.5z M201,595.3c8.5,3.5,16.9,7.2,25.2,11.2L0,1079.5
					L201,595.3z M149,576.8c8.8,2.6,17.7,5.5,26.3,8.5l-175.1,494L149,576.8z M0,1080v-0.2V1080z M95.2,564c9.1,1.6,18.1,3.5,27,5.8
					l-122,509.8L95.2,564z M0,1080v-0.2V1080z M0,1080v-0.2v-0.2l40.8-522.8c9.1,0.6,18.1,1.6,27.3,2.9L0.3,1079.5v0.2v0.2L0,1080z
					 M0,1080V555.3c4.5,0,9,0,13.5,0.2L0,1079.8V1080z M0,555.3V1080h-0.2h-0.5h-0.2H-1h-0.6V555.3H0z M0.2,1080l524.6-13.5
					l465.3-12c0.2,8.5,0.3,17,0.3,25.5H0H0.2z M-0.8,1080H-1h-0.6H-0.8z M-0.2,1080H0h0.2h0.2h0.2l520.1-67.9L982,952
					c2.2,17,4,34.2,5.3,51.3l-464.1,35.9L0.3,1080H0.2H-0.2h-0.5H-0.2z M0.5,1079.8l510-121.9l452.7-108.3c4,16.8,7.7,33.9,10.8,51
					l-457.8,84.2L0.5,1079.8z M-0.2,1080H0H-0.2z M494.7,904.8l438.9-155.3c5.8,16.4,11.2,32.9,16.1,49.6L503.2,931.1L0.3,1079.8
					L494.7,904.8z M0,1080h0.2H0z M473.7,853.8l419.9-200.6c7.5,15.6,14.6,31.4,21.2,47.7l-430,178.3L0.3,1079.8L473.7,853.8z
					 M447.4,805.5L844,562.1c9,14.8,17.7,29.7,26,44.9L0.5,1079.8L447.4,805.5z M0,1080l0.2-0.2L0,1080z M0.2,1080l416.1-319.6
					l369.2-283.5c10.4,13.6,20.5,27.6,30.5,41.7L432.4,782.5l-432,297.3L0.2,1080z M0.2,1080l380.6-361.2l337.6-320.4
					c11.9,12.5,23.3,25.2,34.5,38.3L399,739L0.2,1080z M0,1079.8l341.1-398.7l302.4-353.6c13.2,11.2,25.8,22.6,38.4,34.5
					L361.3,699.4L0,1079.8z M0,1079.8v-0.2l297.6-431.8l264.1-383.3c14.3,9.8,28.1,19.9,41.7,30.5l-283.6,369L0,1079.8z M0.2,1079.5
					l473-869.2c15.2,8.3,30.2,17,44.9,26L274.5,632.8L0.2,1079.5z M201,595.3l178.3-429.9c16.1,6.7,31.9,13.8,47.7,21.2L226.3,606.5
					l-226.2,473L201,595.3z M149,576.8l131.9-446.2c16.7,5,33.4,10.3,49.6,16L175.1,585.3L0,1079.4L149,576.8z M0,1080v-0.2V1080z
					 M0.2,1079.5l95-515.5l84.3-457.6c17.2,3.2,34.2,6.7,51,10.8L122.2,569.6L0.2,1079.5z M0,1080v-0.2V1080z M0,1080v-0.2v-0.2
					l40.8-522.8l36-464c17.2,1.3,34.4,3.2,51.4,5.3L67.9,559.6L0,1079.5v0.2v0.2V1080z M0,1080V90c8.5,0,17,0.2,25.5,0.3l-12,465.2
					L0,1079.8V1080z M0,90v990h-0.2h-0.5h-0.2H-1h-0.6V90H0z"/>
			</g>
		</g>
	</g>
</g>
</svg>
